X:8
T:Ladies' Pleasure
A:Bledington
L:1/8
M:6/8
P:AB.CB
C:A.AB.(CB)2
F:http://richardrobinson.tunebook.org.uk/Tune/6439
N:DON'T PLAY LEAD NOTE IN SLOWS
%abc2id:chwalshaw@gmail.com:000000008
R:Jig
R:Morris dance
%abc2 #test list 2:007
%abc2 #test list 4:002
K:G
P:A
|:d|g2 g B2 c|d2 B G2 D|G2 G ABc|1B2 A A2:|2B2 A G3|]
P:B
A2 A cBc|A2 A cBc|ABc def| gfe d2 d|
g2 g B2 c|d2B G2 D|G2 G ABc| B2 A G3 |]
P:C
g3 g3|B3 c3|d3 B3|G3 D3|G2G ABc|1B2A A3:|2B2A G3||
%%writefields N

